resources/icons/20px/rect-height.svg

<svg width="20" height="20" viewBox="0 0 20 20" fill="none" xmlns="http://www.w3.org/2000/svg">
<path d="M4 18H16V2H4V18ZM2 1C2 0.734784 2.10536 0.48043 2.29289 0.292893C2.48043 0.105357 2.73478 0 3 0L17 0C17.2652 0 17.5196 0.105357 17.7071 0.292893C17.8946 0.48043 18 0.734784 18 1V19C18 19.2652 17.8946 19.5196 17.7071 19.7071C17.5196 19.8946 17.2652 20 17 20H3C2.73478 20 2.48043 19.8946 2.29289 19.7071C2.10536 19.5196 2 19.2652 2 19V1ZM6.293 12.705C6.1951 12.6135 6.11662 12.5032 6.06222 12.3807C6.00783 12.2582 5.97864 12.126 5.97638 11.992C5.97413 11.858 5.99886 11.725 6.0491 11.6007C6.09935 11.4765 6.17408 11.3636 6.26884 11.2688C6.36361 11.1741 6.47647 11.0993 6.60072 11.0491C6.72496 10.9989 6.85804 10.9741 6.99204 10.9764C7.12604 10.9786 7.25822 11.0078 7.3807 11.0622C7.50319 11.1166 7.61348 11.1951 7.705 11.293L10 13.587L12.295 11.293C12.4843 11.116 12.7349 11.0195 12.994 11.0239C13.2531 11.0283 13.5004 11.1331 13.6836 11.3164C13.8669 11.4996 13.9717 11.7469 13.9761 12.006C13.9805 12.2651 13.884 12.5157 13.707 12.705L10.745 15.668C10.6512 15.7728 10.5364 15.8565 10.408 15.9139C10.2796 15.9713 10.1406 16.0009 10 16.0009C9.85939 16.0009 9.72037 15.9713 9.592 15.9139C9.46362 15.8565 9.34879 15.7728 9.255 15.668L6.293 12.705ZM6.293 8.707C6.10614 8.51955 6.00121 8.26567 6.00121 8.001C6.00121 7.73633 6.10614 7.48245 6.293 7.295L9.255 4.332C9.34888 4.22742 9.46375 4.1438 9.59211 4.08659C9.72048 4.02939 9.85946 3.99988 10 4C10.1405 3.99988 10.2795 4.02939 10.4079 4.08659C10.5363 4.1438 10.6511 4.22742 10.745 4.332L13.707 7.295C13.884 7.48429 13.9805 7.73495 13.9761 7.99404C13.9717 8.25314 13.8669 8.50041 13.6836 8.68364C13.5004 8.86688 13.2531 8.97174 12.994 8.9761C12.7349 8.98046 12.4843 8.88397 12.295 8.707L10 6.413L7.705 8.707C7.51755 8.89386 7.26367 8.99879 6.999 8.99879C6.73433 8.99879 6.48045 8.89386 6.293 8.707Z" fill="black"/>
</svg>

<svg xmlns="http://www.w3.org/2000/svg" viewBox="0 0 20 20">
  <path d="M4 18h12V2H4zM2 1a1 1 0 0 1 1-1h14a1 1 0 0 1 1 1v18a1 1 0 0 1-1 1H3a1 1 0 0 1-1-1zm4.293 11.705a.999.999 0 1 1 1.412-1.412L10 13.587l2.295-2.294a.999.999 0 0 1 1.412 1.412l-2.962 2.963a1 1 0 0 1-1.49 0zm0-3.998a1 1 0 0 1 0-1.412l2.962-2.963a1 1 0 0 1 1.49 0l2.962 2.963a.999.999 0 0 1-1.412 1.412L10 6.413 7.705 8.707a1 1 0 0 1-1.412 0"/>
</svg>
